X:183
T:Sliabh Luachra
B:Terry "Cuz" Teahan "Sliabh Luachra on Parade" 1980
Z:Patrick Cavanagh
M:4/4
L:1/8
R:Reel
K:D
| FBB2 FBde | faef dcBA | FAA2 FAEA | EAA2 eAcA | 
FBB2 FBde | faef dcBA | f/g/f ef dfcf | FBBA B2B2 :| 
| fBB2 fBce | f/g/f bg aged | fBB2 FBbf | e/f/e cA eAce | 
fBB2 fBce | f/g/f bg aged | f/g/f ef dfcf | FBBA B2B2 :|| 

